!! 00000] TT[WS
!!!OTL: Zai liushu
!!!ARE: Asia, China, Shanxi Hequ
!! Ethnic Group: Han
!! WII, 81 (1)
!!!SCT: J0520
!!!YEM: Copyright 1995, estate of Helmut Schaffrath.
**kern
*ICvox
*Ivox
*M2/4
*k[f#]
*G:
{4a
4a
=1
4b
4ee
=2
8ee
8dd
8b
8dd
=3
2a}
=4
{8a
16a
16g
8e
8g
=5
4a
8dd
8b
=6
2a}
=7
{8gg
4.gg
=8
8ee
8gg
8ee
8dd
=9
4dd
8e
8g
=10
4a
4r}
=11
{8dd
16dd
16dd
8f#
8r
=12
8.ee
16gg
8ee
8dd
=13
8dd
8e
4g
=14
8a
16a
16a
8g
8e
=15
2d}
==
!!!AGN: Xiaodiao. Qingge, Sichun
!!!ONB: ESAC (Essen Associative Code) Database: CHINA
!!!AMT: simple duple
!!!AIN: vox
!!!EED: Helmut Schaffrath
!!!EEV: 1.0
*-
